X: 28
T: Out On The Ocean
Z: Will The Whistler
S: https://thesession.org/tunes/108#setting50546
R: jig
M: 6/8
L: 1/8
K: Gmaj
|:GFE | D2 B BAG | BdB ABA | GED G{F}GA | BGF GFE |
D2 B BAG | BdB ABA |GED G{F}GA |BGF:|
|:GBd |e2 e edB | ege edB | d3 def | gfe dBA |
G2 A B2 d | ege dBA | GED G{F}GA | BGF :|

